src/activities/babyshapes/resource/food/orange.svg

<?xml version="1.0" encoding="UTF-8" standalone="no"?>
<svg
   xmlns:dc="http://purl.org/dc/elements/1.1/"
   xmlns:cc="http://creativecommons.org/ns#"
   xmlns:rdf="http://www.w3.org/1999/02/22-rdf-syntax-ns#"
   xmlns:svg="http://www.w3.org/2000/svg"
   xmlns="http://www.w3.org/2000/svg"
   id="svg2"
   version="1.1"
   width="100"
   height="100">
  <metadata
     id="metadata8">
    <rdf:RDF>
      <cc:Work
         rdf:about="">
        <dc:format>image/svg+xml</dc:format>
        <dc:type
           rdf:resource="http://purl.org/dc/dcmitype/StillImage" />
        <dc:title></dc:title>
        <dc:date>2015</dc:date>
        <dc:creator>
          <cc:Agent>
            <dc:title>Timothée Giet</dc:title>
          </cc:Agent>
        </dc:creator>
        <cc:license
           rdf:resource="http://creativecommons.org/licenses/by-sa/4.0/" />
      </cc:Work>
      <cc:License
         rdf:about="http://creativecommons.org/licenses/by-sa/4.0/">
        <cc:permits
           rdf:resource="http://creativecommons.org/ns#Reproduction" />
        <cc:permits
           rdf:resource="http://creativecommons.org/ns#Distribution" />
        <cc:requires
           rdf:resource="http://creativecommons.org/ns#Notice" />
        <cc:requires
           rdf:resource="http://creativecommons.org/ns#Attribution" />
        <cc:permits
           rdf:resource="http://creativecommons.org/ns#DerivativeWorks" />
        <cc:requires
           rdf:resource="http://creativecommons.org/ns#ShareAlike" />
      </cc:License>
    </rdf:RDF>
  </metadata>
  <defs
     id="defs6" />
  <path
     style="color:#000000;display:inline;overflow:visible;visibility:visible;opacity:1;fill:#905610;fill-opacity:1;fill-rule:nonzero;stroke:none;stroke-width:0.4929519;stroke-linecap:round;stroke-linejoin:round;stroke-miterlimit:4;stroke-dasharray:none;stroke-dashoffset:0;stroke-opacity:1;marker:none;enable-background:accumulate"
     d="M 97.5,50 A 47.5,47.5 0 0 1 50,97.5 47.5,47.5 0 0 1 2.4999999,50 47.5,47.5 0 0 1 50,2.5000002 47.5,47.5 0 0 1 97.5,50 Z"
     id="path4233" />
  <path
     style="color:#000000;display:inline;overflow:visible;visibility:visible;opacity:1;fill:#f18d19;fill-opacity:1;fill-rule:nonzero;stroke:none;stroke-width:0.4929519;stroke-linecap:round;stroke-linejoin:round;stroke-miterlimit:4;stroke-dasharray:none;stroke-dashoffset:0;stroke-opacity:1;marker:none;enable-background:accumulate"
     d="M 93.955224,48.818408 A 43.955224,43.482588 0 0 1 50,92.300995 43.955224,43.482588 0 0 1 6.0447759,48.818408 43.955224,43.482588 0 0 1 50,5.3358208 43.955224,43.482588 0 0 1 93.955224,48.818408 Z"
     id="path4233-3" />
  <path
     d="m 51.288484,13.540899 c 0.41826,2.36704 0.733499,10.324779 1.47524,10.324779 1.609165,-0.665459 3.65307,-8.533127 4.520494,-9.331041 0.865364,-0.797914 8.663938,6.044016 9.282056,5.779103 C 67.186451,20.046709 61.137147,8.9445741 61.384394,8.1466598 59.651606,8.0137801 57.321306,9.8560825 56.579565,8.5262254 55.837825,7.1963682 54.372889,7.9120539 52.392854,6.1831336 49.149801,9.836797 43.671224,11.47586 42.185684,13.736723 c 1.48554,1.063885 7.429764,0.234605 9.1028,-0.195824 z"
     id="path984"
     style="fill:#1b7e1b;fill-opacity:1;fill-rule:evenodd;stroke:none;stroke-width:2.08963442;stroke-linejoin:round" />
  <path
     d="m 51.873342,12.036978 c 0.41826,2.36704 0.315744,10.241228 1.057485,10.241228 1.609164,-0.665459 3.318865,-8.533127 4.186288,-9.331041 0.865365,-0.797914 7.410672,5.876913 8.028789,5.612001 0.620177,-0.267031 -4.92782,-8.444875 -4.680574,-9.2427898 -1.732788,-0.1328797 -3.728882,1.8765248 -4.470623,0.546668 -0.74174,-1.3298572 -1.621818,-1.0319273 -3.601853,-2.7608477 -3.243053,3.6536635 -7.468363,4.0394585 -8.953903,6.3003215 1.48554,1.063886 6.761355,-0.935111 8.434391,-1.36554 z"
     id="path984-6"
     style="fill:#29bf29;fill-opacity:1;fill-rule:evenodd;stroke:none;stroke-width:2.08963442;stroke-linejoin:round" />
  <path
     d="m 54.325839,10.088044 c 0.618117,1.72892 2.103658,1.329856 2.845398,0.531942 1.483481,-0.399063 0.486252,-2.3700065 0.904511,-5.4838857 C 56.71383,4.337974 56.637596,4.5219288 55.154116,4.9207799 54.904808,5.7186943 53.831345,9.2901291 54.325839,10.088044 Z"
     id="path985"
     style="fill:#1b7e1b;fill-opacity:1;fill-rule:evenodd;stroke:none;stroke-width:2.08963442;stroke-linejoin:round" />
  <path
     d="M 54.775899,9.5543353 C 55.240375,10.853511 56.356666,10.55364 56.914038,9.9540568 58.02878,9.6541857 57.279425,8.1731458 57.59372,5.8332609 56.570325,5.2335197 56.513039,5.3717495 55.398298,5.6714612 55.210958,6.2710439 54.404318,8.9547526 54.775899,9.5543353 Z"
     id="path985-7"
     style="fill:#29bf29;fill-opacity:1;fill-rule:evenodd;stroke:none;stroke-width:2.08963442;stroke-linejoin:round" />
</svg>

<svg xmlns:dc="http://purl.org/dc/elements/1.1/" xmlns:cc="http://creativecommons.org/ns#" xmlns:rdf="http://www.w3.org/1999/02/22-rdf-syntax-ns#" xmlns="http://www.w3.org/2000/svg" width="100" height="100"><metadata><rdf:RDF><cc:Work><dc:format>image/svg+xml</dc:format><dc:type rdf:resource="http://purl.org/dc/dcmitype/StillImage"/><dc:title/><dc:date>2015</dc:date><dc:creator><cc:Agent><dc:title>Timothée Giet</dc:title></cc:Agent></dc:creator><cc:license rdf:resource="http://creativecommons.org/licenses/by-sa/4.0/"/></cc:Work><cc:License rdf:about="http://creativecommons.org/licenses/by-sa/4.0/"><cc:permits rdf:resource="http://creativecommons.org/ns#Reproduction"/><cc:permits rdf:resource="http://creativecommons.org/ns#Distribution"/><cc:requires rdf:resource="http://creativecommons.org/ns#Notice"/><cc:requires rdf:resource="http://creativecommons.org/ns#Attribution"/><cc:permits rdf:resource="http://creativecommons.org/ns#DerivativeWorks"/><cc:requires rdf:resource="http://creativecommons.org/ns#ShareAlike"/></cc:License></rdf:RDF></metadata><path style="color:#000;display:inline;overflow:visible;visibility:visible;opacity:1;fill:#905610;fill-opacity:1;fill-rule:nonzero;stroke:none;stroke-width:.4929519;stroke-linecap:round;stroke-linejoin:round;stroke-miterlimit:4;stroke-dasharray:none;stroke-dashoffset:0;stroke-opacity:1;marker:none;enable-background:accumulate" d="M97.5 50A47.5 47.5 0 0 1 50 97.5 47.5 47.5 0 0 1 2.5 50 47.5 47.5 0 0 1 50 2.5 47.5 47.5 0 0 1 97.5 50z"/><path style="color:#000;display:inline;overflow:visible;visibility:visible;opacity:1;fill:#f18d19;fill-opacity:1;fill-rule:nonzero;stroke:none;stroke-width:.4929519;stroke-linecap:round;stroke-linejoin:round;stroke-miterlimit:4;stroke-dasharray:none;stroke-dashoffset:0;stroke-opacity:1;marker:none;enable-background:accumulate" d="M93.955 48.818A43.955 43.483 0 0 1 50 92.301 43.955 43.483 0 0 1 6.045 48.818 43.955 43.483 0 0 1 50 5.336a43.955 43.483 0 0 1 43.955 43.482z"/><path d="M51.288 13.54c.419 2.368.734 10.326 1.476 10.326 1.609-.666 3.653-8.533 4.52-9.331.866-.798 8.664 6.044 9.282 5.779.62-.267-5.429-11.37-5.182-12.167-1.732-.133-4.063 1.71-4.804.38-.742-1.33-2.207-.615-4.187-2.344-3.243 3.654-8.722 5.293-10.207 7.554 1.485 1.064 7.43.234 9.102-.196z" style="fill:#1b7e1b;fill-opacity:1;fill-rule:evenodd;stroke:none;stroke-width:2.08963442;stroke-linejoin:round"/><path d="M51.873 12.037c.419 2.367.316 10.241 1.058 10.241 1.609-.665 3.319-8.533 4.186-9.33.865-.799 7.41 5.876 8.029 5.611.62-.267-4.928-8.445-4.68-9.243-1.733-.133-3.73 1.877-4.471.547-.742-1.33-1.622-1.032-3.602-2.76-3.243 3.653-7.469 4.039-8.954 6.3 1.485 1.063 6.761-.936 8.434-1.366z" style="fill:#29bf29;fill-opacity:1;fill-rule:evenodd;stroke:none;stroke-width:2.08963442;stroke-linejoin:round"/><path d="M54.326 10.088c.618 1.729 2.103 1.33 2.845.532 1.484-.4.486-2.37.905-5.484-1.362-.798-1.438-.614-2.922-.215-.25.798-1.323 4.37-.828 5.167z" style="fill:#1b7e1b;fill-opacity:1;fill-rule:evenodd;stroke:none;stroke-width:2.08963442;stroke-linejoin:round"/><path d="M54.776 9.554c.464 1.3 1.58 1 2.138.4 1.115-.3.365-1.78.68-4.12-1.024-.6-1.081-.462-2.196-.163-.187.6-.994 3.284-.622 3.883z" style="fill:#29bf29;fill-opacity:1;fill-rule:evenodd;stroke:none;stroke-width:2.08963442;stroke-linejoin:round"/></svg>
